markup/images/icon35.svg

<svg xmlns="http://www.w3.org/2000/svg" width="41" height="36"><path fill-rule="evenodd" fill="#FFF" d="M40.399 36c-.331 0-.6-.309-.6-.689v-5.09c0-.58-.281-1.101-.733-1.36L37.06 27.71l-.698.76c-.487.533-1.114.799-1.74.799-.626 0-1.252-.266-1.74-.799l-.698-.761-.929.534c.479.645.758 1.476.758 2.358v4.709c0 .381-.269.69-.6.69-.332 0-.601-.309-.601-.69v-4.709c0-.894-.46-1.704-1.172-2.065l-3.433-1.74c-1.076 2.476-3.267 4.047-5.707 4.047-2.431 0-4.63-1.575-5.706-4.048l-3.434 1.741c-.712.361-1.172 1.171-1.172 2.065v4.709c0 .381-.269.69-.601.69-.331 0-.6-.309-.6-.69v-4.709c0-1.191.508-2.289 1.333-2.962l-.609-.2c-.149-.049-.353-.116-.558-.231L7.62 28.966v6.345c0 .38-.269.689-.6.689-.332 0-.601-.309-.601-.689v-6.345L4.897 27.22a1.332 1.332 0 0 1-.255.116l-2.48.813c-.566.186-.961.787-.961 1.462v5.7c0 .38-.269.689-.601.689-.331 0-.6-.309-.6-.689v-5.7c0-1.287.753-2.433 1.832-2.787l2.48-.813c.107-.035.181-.149.181-.276v-.996c-1.16-.963-1.925-2.563-1.925-4.346v-1.125l-.308-.706a4.096 4.096 0 0 1-.334-1.626v-.041c0-2.411 1.709-4.372 3.81-4.372h5.662a279.2 279.2 0 0 0 .158-2.309c.196-3.05 1.152-5.626 2.764-7.449C15.92.956 18.057 0 20.5 0c2.442 0 4.579.956 6.179 2.765 1.613 1.823 2.569 4.399 2.765 7.45.149 2.312.304 4.296.452 5.975a5.862 5.862 0 0 1 1.667-2.493 3.376 3.376 0 0 1-.109-.853c0-1.802 1.421-3.268 3.168-3.268s3.168 1.466 3.168 3.268c0 .291-.037.576-.11.853 1.236 1.068 2.036 2.764 2.036 4.671a6.498 6.498 0 0 1-.686 2.919c-.176 1.464-.883 2.711-1.882 3.5v1.403c0 .018.009.034.023.042l2.432 1.396c.862.494 1.397 1.488 1.397 2.593v5.09c0 .38-.269.689-.601.689zm-6.69-8.529c.512.559 1.314.559 1.826 0l.558-.608a1.604 1.604 0 0 1-.146-.673v-.733a3.943 3.943 0 0 1-2.65 0v.733c0 .24-.052.47-.146.673l.558.608zM20.5 29.465c1.961 0 3.724-1.251 4.606-3.227l-.874-.443c-.682-.346-1.123-1.122-1.123-1.978v-1.654a6.21 6.21 0 0 1-2.609.578 6.206 6.206 0 0 1-2.609-.578v1.654c0 .856-.441 1.632-1.123 1.978l-.874.443c.882 1.974 2.652 3.227 4.606 3.227zM7.02 27.706l1.362-1.563a2.143 2.143 0 0 1-.037-.409v-.276c-.423.15-.868.229-1.324.229l-.138-.002a3.724 3.724 0 0 1-1.188-.241v.291c0 .137-.016.272-.044.401l1.369 1.57zm3.893-13.805H5.736c-1.439 0-2.609 1.343-2.609 2.994v.041c0 .349.072.698.207 1.01l.371.851a.765.765 0 0 1 .064.308v1.288c0 2.098 1.413 3.854 3.15 3.914.888.031 1.728-.343 2.364-1.052.637-.708.988-1.659.988-2.677v-1.473c0-.107.021-.213.063-.308l.303-.696c.18-.413.276-.877.276-1.339v-2.861zm-.018 10.483a1.363 1.363 0 0 1-.435-.563 4.69 4.69 0 0 1-.914.964v.949c0 .154 0 .217.495.38l1.898.622 1.682-.853c-1.336-.547-2.245-1.142-2.726-1.499zm17.351-14.068c-.175-2.712-1.008-4.984-2.41-6.569-1.37-1.55-3.216-2.369-5.336-2.369-2.121 0-3.966.819-5.336 2.369-1.402 1.585-2.236 3.857-2.41 6.569-.473 7.351-1.011 11.45-1.221 12.871-.003.022.003.031.015.04.57.424 1.81 1.215 3.744 1.809l.991-.502c.247-.125.407-.407.407-.717v-2.369c-1.93-1.437-3.21-3.932-3.21-6.763v-.576c0-.753.362-1.459.944-1.844a3.971 3.971 0 0 0 1.655-2.218c.105-.361.445-.556.759-.436.315.121.485.511.38.872a5.297 5.297 0 0 1-2.194 2.976.773.773 0 0 0-.343.649v.577c0 3.682 2.611 6.677 5.819 6.677 3.208 0 5.818-2.995 5.818-6.677v-1.292c0-.441-.16-.854-.44-1.134-1.099-1.097-3.601-3.012-8.006-3.518-.33-.038-.57-.375-.537-.754.033-.379.328-.655.657-.617 4.736.543 7.467 2.645 8.674 3.849.542.542.854 1.334.854 2.174v1.292c0 2.831-1.28 5.326-3.21 6.762v2.37c0 .31.16.592.407.717l.991.502c1.933-.594 3.173-1.385 3.744-1.809.011-.009.018-.018.014-.04-.209-1.421-.747-5.52-1.22-12.871zm1.859 14.068c-.482.358-1.391.952-2.726 1.499l2.746 1.392c.022.011.044.025.066.037l1.882-1.08a.048.048 0 0 0 .023-.042v-1.403a4.957 4.957 0 0 1-1.459-1.927l.014.097c.082.559-.132 1.119-.546 1.427zm4.517-13.43c-1.085 0-1.967.848-1.967 1.89 0 .043.003.086.006.13a4.5 4.5 0 0 1 3.922 0c.003-.044.006-.087.006-.13 0-1.042-.882-1.89-1.967-1.89zm3.201 10.267c-.941-1.528-3.039-2.398-4.049-2.742a3.422 3.422 0 0 1-.653 1.113.547.547 0 0 1-.849 0 .762.762 0 0 1 0-.975c.438-.503.466-.981.466-.986 0-.208.082-.406.224-.537a.548.548 0 0 1 .505-.136c.145.037 3.145.816 4.85 2.804.13-.449.198-.919.198-1.394 0-2.463-1.746-4.467-3.893-4.467s-3.893 2.004-3.893 4.467c0 .819.2 1.625.577 2.33a.741.741 0 0 1 .085.287c.179 1.895 1.568 3.324 3.231 3.324 1.593 0 2.934-1.312 3.201-3.088zm-28.878-2.9a.53.53 0 0 1-.268-.073c-.947-.543-2.908-.663-3.583-.664-.332 0-.601-.309-.601-.689 0-.381.269-.689.601-.689.11 0 2.725.009 4.12.809.297.17.417.584.268.925-.105.241-.317.381-.537.381zM3.168 30.202c.332 0 .601.308.601.689v4.42c0 .38-.269.689-.601.689-.332 0-.6-.309-.6-.689v-4.42c0-.381.268-.689.6-.689zm10.913 1.473c.331 0 .6.308.6.689v2.947c0 .38-.269.689-.6.689-.332 0-.601-.309-.601-.689v-2.947c0-.381.269-.689.601-.689zm12.838 0c.332 0 .601.308.601.689v2.947c0 .38-.269.689-.601.689-.332 0-.601-.309-.601-.689v-2.947c0-.381.269-.689.601-.689zm10.913-.563c.331 0 .6.309.6.69v3.509c0 .38-.269.689-.6.689-.332 0-.601-.309-.601-.689v-3.509c0-.381.269-.69.601-.69z"/></svg>

<svg 
 xmlns="http://www.w3.org/2000/svg"
 xmlns:xlink="http://www.w3.org/1999/xlink"
 width="41px" height="36px">
<path fill-rule="evenodd"  fill="rgb(255, 255, 255)"
 d="M40.399,36.000 C40.068,36.000 39.799,35.691 39.799,35.311 L39.799,30.221 C39.799,29.641 39.518,29.120 39.066,28.861 L37.060,27.710 L36.362,28.470 C35.875,29.003 35.248,29.269 34.622,29.269 C33.996,29.269 33.370,29.003 32.882,28.470 L32.184,27.709 L31.255,28.243 C31.734,28.888 32.013,29.719 32.013,30.601 L32.013,35.310 C32.013,35.691 31.744,36.000 31.413,36.000 C31.081,36.000 30.812,35.691 30.812,35.310 L30.812,30.601 C30.812,29.707 30.352,28.897 29.640,28.536 L26.207,26.796 C25.131,29.272 22.940,30.843 20.500,30.843 C18.069,30.843 15.870,29.268 14.794,26.795 L11.360,28.536 C10.648,28.897 10.188,29.707 10.188,30.601 L10.188,35.310 C10.188,35.691 9.919,36.000 9.587,36.000 C9.256,36.000 8.987,35.691 8.987,35.310 L8.987,30.601 C8.987,29.410 9.495,28.312 10.320,27.639 L9.711,27.439 C9.562,27.390 9.358,27.323 9.153,27.208 L7.620,28.966 L7.620,35.311 C7.620,35.691 7.351,36.000 7.020,36.000 C6.688,36.000 6.419,35.691 6.419,35.311 L6.419,28.966 L4.897,27.220 C4.816,27.267 4.731,27.307 4.642,27.336 L2.162,28.149 C1.596,28.335 1.201,28.936 1.201,29.611 L1.201,35.311 C1.201,35.691 0.932,36.000 0.600,36.000 C0.269,36.000 -0.000,35.691 -0.000,35.311 L-0.000,29.611 C-0.000,28.324 0.753,27.178 1.832,26.824 L4.312,26.011 C4.419,25.976 4.493,25.862 4.493,25.735 L4.493,24.739 C3.333,23.776 2.568,22.176 2.568,20.393 L2.568,19.268 L2.260,18.562 C2.041,18.060 1.926,17.498 1.926,16.936 L1.926,16.895 C1.926,14.484 3.635,12.523 5.736,12.523 L11.398,12.523 C11.451,11.792 11.504,11.024 11.556,10.214 C11.752,7.164 12.708,4.588 14.320,2.765 C15.920,0.956 18.057,-0.000 20.500,-0.000 C22.942,-0.000 25.079,0.956 26.679,2.765 C28.292,4.588 29.248,7.164 29.444,10.215 C29.593,12.527 29.748,14.511 29.896,16.190 C30.246,15.195 30.827,14.334 31.563,13.697 C31.491,13.421 31.454,13.135 31.454,12.844 C31.454,11.042 32.875,9.576 34.622,9.576 C36.369,9.576 37.790,11.042 37.790,12.844 C37.790,13.135 37.753,13.420 37.680,13.697 C38.916,14.765 39.716,16.461 39.716,18.368 C39.716,19.391 39.479,20.397 39.030,21.287 C38.854,22.751 38.147,23.998 37.148,24.787 L37.148,26.190 C37.148,26.208 37.157,26.224 37.171,26.232 L39.603,27.628 C40.465,28.122 41.000,29.116 41.000,30.221 L41.000,35.311 C41.000,35.691 40.731,36.000 40.399,36.000 ZM33.709,27.471 C34.221,28.030 35.023,28.030 35.535,27.471 L36.093,26.863 C35.999,26.660 35.947,26.430 35.947,26.190 L35.947,25.457 C35.528,25.606 35.083,25.687 34.622,25.687 C34.161,25.687 33.716,25.606 33.297,25.457 L33.297,26.190 C33.297,26.430 33.245,26.660 33.151,26.863 L33.709,27.471 ZM20.500,29.465 C22.461,29.465 24.224,28.214 25.106,26.238 L24.232,25.795 C23.550,25.449 23.109,24.673 23.109,23.817 L23.109,22.163 C22.302,22.535 21.421,22.741 20.500,22.741 C19.578,22.741 18.698,22.535 17.891,22.163 L17.891,23.817 C17.891,24.673 17.450,25.449 16.768,25.795 L15.894,26.238 C16.776,28.212 18.546,29.465 20.500,29.465 ZM7.020,27.706 L8.382,26.143 C8.358,26.019 8.345,25.884 8.345,25.734 L8.345,25.458 C7.922,25.608 7.477,25.687 7.021,25.687 C6.975,25.687 6.929,25.686 6.883,25.685 C6.471,25.671 6.072,25.586 5.695,25.444 L5.695,25.735 C5.695,25.872 5.679,26.007 5.651,26.136 L7.020,27.706 ZM10.913,13.901 L5.736,13.901 C4.297,13.901 3.127,15.244 3.127,16.895 L3.127,16.936 C3.127,17.285 3.199,17.634 3.334,17.946 L3.705,18.797 C3.747,18.892 3.769,18.998 3.769,19.105 L3.769,20.393 C3.769,22.491 5.182,24.247 6.919,24.307 C7.807,24.338 8.647,23.964 9.283,23.255 C9.920,22.547 10.271,21.596 10.271,20.578 L10.271,19.105 C10.271,18.998 10.292,18.892 10.334,18.797 L10.637,18.101 C10.817,17.688 10.913,17.224 10.913,16.762 L10.913,13.901 ZM10.895,24.384 C10.704,24.242 10.556,24.046 10.460,23.821 C10.354,23.968 10.241,24.110 10.120,24.245 C9.940,24.445 9.748,24.625 9.546,24.785 L9.546,25.734 C9.546,25.888 9.546,25.951 10.041,26.114 L11.939,26.736 L13.621,25.883 C12.285,25.336 11.376,24.741 10.895,24.384 ZM28.246,10.316 C28.071,7.604 27.238,5.332 25.836,3.747 C24.466,2.197 22.620,1.378 20.500,1.378 C18.379,1.378 16.534,2.197 15.164,3.747 C13.762,5.332 12.928,7.604 12.754,10.316 C12.281,17.667 11.743,21.766 11.533,23.187 C11.530,23.209 11.536,23.218 11.548,23.227 C12.118,23.651 13.358,24.442 15.292,25.036 L16.283,24.534 C16.530,24.409 16.690,24.127 16.690,23.817 L16.690,21.448 C14.760,20.011 13.480,17.516 13.480,14.685 L13.480,14.109 C13.480,13.356 13.842,12.650 14.424,12.265 C14.995,11.888 15.745,11.198 16.079,10.047 C16.184,9.686 16.524,9.491 16.838,9.611 C17.153,9.732 17.323,10.122 17.218,10.483 C16.765,12.044 15.775,12.963 15.024,13.459 C14.809,13.601 14.681,13.844 14.681,14.108 L14.681,14.685 C14.681,18.367 17.292,21.362 20.500,21.362 C23.708,21.362 26.318,18.367 26.318,14.685 L26.318,13.393 C26.318,12.952 26.158,12.539 25.878,12.259 C24.779,11.162 22.277,9.247 17.872,8.741 C17.542,8.703 17.302,8.366 17.335,7.987 C17.368,7.608 17.663,7.332 17.992,7.370 C22.728,7.913 25.459,10.015 26.666,11.219 C27.208,11.761 27.520,12.553 27.520,13.393 L27.520,14.685 C27.520,17.516 26.240,20.011 24.310,21.447 L24.310,23.817 C24.310,24.127 24.470,24.409 24.717,24.534 L25.708,25.036 C27.641,24.442 28.881,23.651 29.452,23.227 C29.463,23.218 29.470,23.209 29.466,23.187 C29.257,21.766 28.719,17.667 28.246,10.316 ZM30.105,24.384 C29.623,24.742 28.714,25.336 27.379,25.883 L30.125,27.275 C30.147,27.286 30.169,27.300 30.191,27.312 L32.073,26.232 C32.087,26.224 32.096,26.208 32.096,26.190 L32.096,24.787 C31.480,24.300 30.974,23.639 30.637,22.860 C30.641,22.893 30.646,22.926 30.651,22.957 C30.733,23.516 30.519,24.076 30.105,24.384 ZM34.622,10.954 C33.537,10.954 32.655,11.802 32.655,12.844 C32.655,12.887 32.658,12.930 32.661,12.974 C33.265,12.683 33.928,12.523 34.622,12.523 C35.317,12.523 35.979,12.683 36.583,12.974 C36.586,12.930 36.589,12.887 36.589,12.844 C36.589,11.802 35.707,10.954 34.622,10.954 ZM37.823,21.221 C36.882,19.693 34.784,18.823 33.774,18.479 C33.657,18.811 33.459,19.204 33.121,19.592 C32.886,19.861 32.506,19.861 32.272,19.592 C32.037,19.323 32.037,18.887 32.272,18.617 C32.710,18.114 32.738,17.636 32.738,17.631 C32.738,17.423 32.820,17.225 32.962,17.094 C33.104,16.964 33.290,16.914 33.467,16.958 C33.612,16.995 36.612,17.774 38.317,19.762 C38.447,19.313 38.515,18.843 38.515,18.368 C38.515,15.905 36.769,13.901 34.622,13.901 C32.475,13.901 30.729,15.905 30.729,18.368 C30.729,19.187 30.929,19.993 31.306,20.698 C31.353,20.785 31.382,20.883 31.391,20.985 C31.570,22.880 32.959,24.309 34.622,24.309 C36.215,24.309 37.556,22.997 37.823,21.221 ZM8.945,18.321 C8.855,18.321 8.763,18.298 8.677,18.248 C7.730,17.705 5.769,17.585 5.094,17.584 C4.762,17.584 4.493,17.275 4.493,16.895 C4.493,16.514 4.762,16.206 5.094,16.206 C5.204,16.206 7.819,16.215 9.214,17.015 C9.511,17.185 9.631,17.599 9.482,17.940 C9.377,18.181 9.165,18.321 8.945,18.321 ZM3.168,30.202 C3.500,30.202 3.769,30.510 3.769,30.891 L3.769,35.311 C3.769,35.691 3.500,36.000 3.168,36.000 C2.836,36.000 2.568,35.691 2.568,35.311 L2.568,30.891 C2.568,30.510 2.836,30.202 3.168,30.202 ZM14.081,31.675 C14.412,31.675 14.681,31.983 14.681,32.364 L14.681,35.311 C14.681,35.691 14.412,36.000 14.081,36.000 C13.749,36.000 13.480,35.691 13.480,35.311 L13.480,32.364 C13.480,31.983 13.749,31.675 14.081,31.675 ZM26.919,31.675 C27.251,31.675 27.520,31.983 27.520,32.364 L27.520,35.311 C27.520,35.691 27.251,36.000 26.919,36.000 C26.587,36.000 26.318,35.691 26.318,35.311 L26.318,32.364 C26.318,31.983 26.587,31.675 26.919,31.675 ZM37.832,31.112 C38.163,31.112 38.432,31.421 38.432,31.802 L38.432,35.311 C38.432,35.691 38.163,36.000 37.832,36.000 C37.500,36.000 37.231,35.691 37.231,35.311 L37.231,31.802 C37.231,31.421 37.500,31.112 37.832,31.112 Z"/>
</svg>
